-----BEGIN PGP SIGNATURE-----

iQIzBAABCgAdFiEEkhD+nosIDOORoCPeZrtgmti0zJsFAmp1GQ0ACgkQZrtgmti0
zJsNkBAAtBeIc2o1/uRXSN1R1psB31eDN6iYxMIyeuW5Ux76SydKSErwBz69TA/z
VDRgl4NQaQ1NWP0cZZ7mpSdZ43/SbUGZCXPmgxayDXJXVHOt3ceflOVduQ2tWMq8
98xy5vfalUgnuMGssaY3JhefdUwmUJwhrdVuRxbKyVMBaxmd/uqvPVWBILmc4sZN
8i5ZbGOhGdQEX1dsZJg/otnN4azBWgSHIyxd5M3OZkaDMAVPpujmgZAMvmU25EAc
imu7YD3+yULPpdbNaTn4scRaYT02huKefD7rlPsdS17lClS5BLuhkJrhFpk0veKv
V/q5orReJfyeWBfSO0ZlJK5esh7qGQ7QH2KPPdzrpWVrrVlhAJpXiqI3GzPPp2RR
a6tKXcab5FqDznV2dVGVccgL7cgGd22u8T5cFiMcJ7j5kiPR6+cGi5HoCFp3C5tE
w67IzusNTT1QTUw3obq0iczNvilRQ/4dxhbJddHunhHrOPNogJv0cQNfRTNKJCgX
6ehW/hhuXQ5l1vBaZxpkF4S9+2UqfWj98mpydleGsRB242SQ3nAFxkwJn3IZGslK
V7TqtTOpWu2N110LlxqkMG5GFeohUFlfKpG4A0kP5kmbf+Tc8RUvQnXkV4S6RIJV
02P9khTWcg3xcL2m8cwaqZjh3fJKd7YjSdn806AdNjn66ImmBwE=
=DByX
-----END PGP SIGNATURE-----
